X:4813
T: En Sang Til Deg
O: Norway
M: 2/4
L: 1/8
Q: 1/4=160
K: Em
%%MIDI gchord zf
"D"z2"Em"B,2|E2E^D|E2"Bm"d2|B2B2|F3A|G2"G"GF|E2"Em"E2|FE"B"F^D|B,3B,|
E2"B"E^D|E2"Bm"d2|B2B2|F3A|"C"G2GE|F2"Bm"F^D|"E"E4-|E4|
